packages/ffe-icons/icons/filled/md/electrical_services.svg

<svg xmlns="http://www.w3.org/2000/svg" height="24" viewBox="0 -960 960 960" width="24"><path d="M739.999-370.001q-12.75 0-21.375-8.628-8.625-8.629-8.625-21.384 0-12.756 8.625-21.371 8.625-8.615 21.375-8.615H800q12.75 0 21.375 8.628 8.624 8.629 8.624 21.384 0 12.756-8.624 21.371-8.625 8.615-21.375 8.615h-60.001Zm0 160q-12.75 0-21.375-8.628-8.625-8.629-8.625-21.384 0-12.756 8.625-21.371 8.625-8.615 21.375-8.615H800q12.75 0 21.375 8.628 8.624 8.629 8.624 21.384 0 12.756-8.624 21.371-8.625 8.615-21.375 8.615h-60.001Zm-169.998 40q-33 0-56.5-23.5t-23.5-56.5h-43.847q-15.365 0-25.759-10.394t-10.394-25.759v-67.692q0-15.365 10.394-25.759t25.759-10.394h43.847q0-33 23.5-56.5t56.5-23.5h63.845q15.365 0 25.759 10.394t10.394 25.759v227.692q0 15.365-10.394 25.759t-25.759 10.394h-63.845ZM280-290.001q-62.154 0-106.076-43.923Q130.001-377.846 130.001-440q0-62.154 43.923-106.076Q217.846-589.999 280-589.999h60q28.846 0 49.424-20.577 20.577-20.578 20.577-49.424t-20.577-49.424Q368.846-730.001 340-730.001H200q-12.75 0-21.374-8.628-8.625-8.629-8.625-21.384 0-12.756 8.625-21.371 8.624-8.615 21.374-8.615h140q54.154 0 92.076 37.923 37.923 37.922 37.923 92.076 0 54.154-37.923 92.076-37.922 37.923-92.076 37.923h-60q-37.125 0-63.563 26.46-26.438 26.46-26.438 63.616t26.438 63.541q26.438 26.385 63.563 26.385h60.001q12.75 0 21.375 8.628 8.625 8.629 8.625 21.384 0 12.756-8.625 21.371-8.625 8.615-21.375 8.615H280Z"/></svg>

<svg xmlns="http://www.w3.org/2000/svg" height="24" viewBox="0 -960 960 960" width="24"><path d="M740-370q-12.75 0-21.38-8.63-8.62-8.63-8.62-21.38 0-12.76 8.62-21.37Q727.25-430 740-430h60q12.75 0 21.37 8.63 8.63 8.63 8.63 21.38 0 12.76-8.63 21.37Q812.75-370 800-370h-60Zm0 160q-12.75 0-21.38-8.63-8.62-8.63-8.62-21.38 0-12.76 8.62-21.37Q727.25-270 740-270h60q12.75 0 21.37 8.63 8.63 8.63 8.63 21.38 0 12.76-8.63 21.37Q812.75-210 800-210h-60Zm-170 40q-33 0-56.5-23.5T490-250h-43.85q-15.36 0-25.76-10.39Q410-270.79 410-286.15v-67.7q0-15.36 10.39-25.76Q430.79-390 446.15-390H490q0-33 23.5-56.5T570-470h63.85q15.36 0 25.76 10.39Q670-449.21 670-433.85v227.7q0 15.36-10.39 25.76Q649.21-170 633.85-170H570ZM280-290q-62.15 0-106.08-43.92Q130-377.85 130-440t43.92-106.08Q217.85-590 280-590h60q28.85 0 49.42-20.58Q410-631.15 410-660t-20.58-49.42Q368.85-730 340-730H200q-12.75 0-21.37-8.63-8.63-8.63-8.63-21.38 0-12.76 8.63-21.37Q187.25-790 200-790h140q54.15 0 92.08 37.92Q470-714.15 470-660t-37.92 92.08Q394.15-530 340-530h-60q-37.13 0-63.56 26.46Q190-477.08 190-439.93q0 37.16 26.44 63.55Q242.87-350 280-350h60q12.75 0 21.38 8.63 8.62 8.63 8.62 21.38 0 12.76-8.62 21.37Q352.75-290 340-290h-60Z"/></svg>
